X:103
T:A Reel by John Ganstead
O:No 103 Wm Clarke of Feltwell  MS 1858
N:Triplets were written as semiquavers throughout
N:Quavers at the ends of strains were shown as crochets.
I:abc2nwc
M:2/2
L:1/8
K:G
D|GDGB GDGB|dBgB  (3A"_*"AA AB|GDGB GDGB|dcBA  (3GG"_*"G"_*"G:|
|:d|g2bg  (3e"^*"e"_*"e ef|gafg egdg|dcBA| (3G"_*"GG"_*"G:|

